!!!!SEGMENT: pl-wtm--r-1427--008_stefani-jozef--no-19-agnus-dei.krn
!!!cenid: 18xx:2444
!!!COM: Stefani, Józef
!!!COM-rismID:
!!!CDT: 1800/04/16-1876/03/19
!!!CNT: Polish
!!!OPR: No. 19
!!!OTL: Agnus Dei
!!!OMV: 008
!!!PDT:
!!!AGN: Sacred; Mass
!!!SMS-siglum: PL-Wtm
!!!SMS-shelfmark: R 1427
!!!SMS-shelfwork: 001-008 M
!!!SMS-variant:
!!!SMS-altvar:
!!!NIFC-rismSourceID: 1001116126
!!!NIFC-islandoraID:
!!!URL-pdf-islandora:
!!!URL-scan:
!!!ONB-nifc: UWAGA: części Mszy: 1. Kyrie, 2. Gloria, 3. Graduale, 4. Credo, 5. Offertorium. 6. Sanctus, 7. Benedictus, 8. Agnus Dei, 9. Dona nobis
!!!OMD: Adagio.
!!!AIN: 1 organ 1 vox
!!!key:
**kern	**kern	**kern	**text	**text	**text	**text	**dynam
*part2	*part2	*part1	*part1	*part1	*part1	*part1	*part1
*staff3	*staff2	*staff1	*staff1	*staff1	*staff1	*staff1	*
*Iorgan	*Iorgan	*Ivox	*	*	*	*	*
*I"Organo	*I"Organo	*I"Głos	*	*	*	*	*
*>[A,B,B,B,B,C]	*>[A,B,B,B,B,C]	*>[A,B,B,B,B,C]	*>[A,B,B,B,B,C]	*>[A,B,B,B,B,C]	*>[A,B,B,B,B,C]	*>[A,B,B,B,B,C]	*>[A,B,B,B,B,C]
*>A	*>A	*>A	*>A	*>A	*>A	*>A	*>A
*clefF4	*clefG2	*clefG2	*	*	*	*	*
*k[b-]	*k[b-]	*k[b-]	*	*	*	*	*
*F:	*F:	*F:	*	*	*	*	*
*M3/4	*M3/4	*M3/4	*	*	*	*	*
*all\right	*all\right	*all\right	*	*	*	*	*
4B- 4BB-\	4dd 4g 4d/	4r	.	.	.	.	.
=1	=1	=1	=1	=1	=1	=1	=1
*2\right	*	*	*	*	*	*	*
2A 2AA\	2.cc#X 2.a 2.e/	2.r	.	.	.	.	.
4G 4GG/	.	.	.	.	.	.	.
=2	=2	=2	=2	=2	=2	=2	=2
2F 2FF/	2dd 2a 2d/	2.r	.	.	.	.	.
4C#X/	4ee 4a 4e/	.	.	.	.	.	.
=3	=3	=3	=3	=3	=3	=3	=3
2D\	2ff 2a 2f/	2.r	.	.	.	.	.
4F\	4dd 4a 4f/	.	.	.	.	.	.
=4	=4	=4	=4	=4	=4	=4	=4
2G\	2.bn 2.f 2.d/	2.r	.	.	.	.	.
4GG/	.	.	.	.	.	.	.
=5||	=5||	=5||	=5||	=5||	=5||	=5||	=5||
*>B	*>B	*>B	*>B	*>B	*>B	*>B	*>B
!LO:TX:a:t=[segno]	!	!LO:TX:a:t=[segno]	!	!	!	!	!
4C\	4cc 4e/	4cc\	1.) Dzie-	2.) Pa-	3.) Nie-	4.) Bo-	.
4D\	4bn 4f/	4bn\	-ci	-nem	-chaj	-ży	.
4E\	4b-X 4g/	4b-X\	nie	Ty	w Chri-	ba-	.
!!LO:LB:g=original
=6	=6	=6	=6	=6	=6	=6	=6
2F\	2a 2f/	4a/	god-	na-	-stu-	-ran-	.
.	.	4a/	-ne	-szym	-sa	-ku	.
4C/	4g 4e/	4g/	tak	i	i-	Coś	.
=7	=7	=7	=7	=7	=7	=7	=7
*	*^	*	*	*	*	*	*
*	*	*2\right	*	*	*	*	*	*
[2D/	[2f/	[2.d\	4f/	wiel-	Oj-	-dzie-	zma-	.
.	.	.	4.f/	-kiej	-cem	-my	-zał	.
8D/L]	8f/L]	.	.	.	.	.	.	.
8BB-/J	8g/J	.	8g/	o-	na	przy-	grzech	.
=8	=8	=8	=8	=8	=8	=8	=8	=8
2AA/	2.a 2.e/	4d\]	2a/	-fia-	wie-	-kła-	świa-	.
.	.	8c#X\L	.	.	.	.	.	.
.	.	8Bn\J	.	.	.	.	.	.
4A 4AA\	.	4c#\	4a/	-ry	-ki	-dy	-ta	.
*	*v	*v	*	*	*	*	*	*
=9	=9	=9	=9	=9	=9	=9	=9
2G 2GG\	2b- 2e 2cn/	2b-/	z Twe-	Cho-	Czy-	A-	.
4F 4FF/	4a 4f 4c/	4a/	-go	-ciasz	-li	-by	.
=10	=10	=10	=10	=10	=10	=10	=10
*	*	*2\right	*	*	*	*	*
2B- 2BB-\	2dd 2f/	2dd\	sto-	sła-	w szczę-	lud	.
4A 4AA\	4cc 4f/	4cc\	-łu	-bi	-ściu	Twój	.
!!LO:LB:g=original
=11	=11	=11	=11	=11	=11	=11	=11
*	*^	*	*	*	*	*	*
2G 2GG/	4cc/	2e\	(4cc\	da-	po-	czy	żył	.
.	4b-/	.	4b-\)	.	.	.	.	.
4F 4FF/	4a/	4f\	4a/	-ry	-błą-	w nie-	bez-	.
*	*v	*v	*	*	*	*	*	*
=12	=12	=12	=12	=12	=12	=12	=12
2F 2FF/	2a 2f/	2a/	bio-	-dzie-	-do-	-pie-	.
4C 4CC/	4g 4e/	4g/	-rą	-my	-li	-czny	.
=13	=13	=13	=13	=13	=13	=13	=13
*tremolo	*	*	*	*	*	*	*
8C\L	2g 2e/	4g/	Rę-	Prze-	On	Ut-	.
8c\	.	.	.	.	.	.	.
8C\	.	4g/	-ce	-cie	nam	-wierdź	.
8c\	.	.	.	.	.	.	.
8C\	4cc 4e/	4cc\	do	z pod	po-	w nas	.
8c\J	.	.	.	.	.	.	.
=14	=14	=14	=14	=14	=14	=14	=14
8C\L	4.ee 4.g/	(4.ee\	Oj-	Two-	-ka-	wia-	.
8c\	.	.	.	.	.	.	.
8C\	.	.	.	.	.	.	.
8c\	8dd 8f/	8dd\)	.	.	.	.	.
8C\	4cc 4e/	8cc\	-ca	-iej	-zał	-rę	.
8c\J	.	8cc\	po-	nie-	i	i	.
!!LO:LB:g=original
=15	=15	=15	=15	=15	=15	=15	=15
*	*^	*	*	*	*	*	*
!LO:TX:t=P:problem=mixed beam	!	!	!	!	!	!	!	!
8GG/L	8cc/L	2.f 2.d\	8cc\L	-dno-	wyj-	wzo-	mi-	.
8G\	8bn/J	.	8bn\J	.	.	.	.	.
8GG/	4a/	.	4a/	-szą	-dziem	-ry	-łość	.
8G\	.	.	.	.	.	.	.	.
8GG/	4b/	.	4b\	po	o-	i	dla	.
8G\J	.	.	.	.	.	.	.	.
=16	=16	=16	=16	=16	=16	=16	=16	=16
8C\L	2cc/	2.e\	2cc\	da-	-pie-	śla-	bra-	.
8c\	.	.	.	.	.	.	.	.
8C\	.	.	.	.	.	.	.	.
8c\J	.	.	.	.	.	.	.	.
*Xtremolo	*	*	*	*	*	*	*	*
8C\L	4g/	.	4g/	-ry	-ki	-dy	-ta	.
8B-X\J	.	.	.	.	.	.	.	.
=17	=17	=17	=17	=17	=17	=17	=17	=17
2.A\	2cc/	2f\	2a/	I	Czy-	Jak	Daj	.
.	4ff 4cc/	4f\	4ff\	z u-	-li	żyć	nam	.
=18	=18	=18	=18	=18	=18	=18	=18	=18
[2B-\	4.ff 4.dd/	2f\	(4.ff\	-fno-	w szczę-	we-	po-	.
.	8dd 8b-/	.	8dd\)	.	.	.	.	.
8B-\L]	8b-/L	4f 4d\	(8b-/L	ścią	-ściu	-dług	-kój	.
8Bn\J	8g/J	.	8g/J)	.	.	.	.	.
=19	=19	=19	=19	=19	=19	=19	=19	=19
!	!	!	!	!	!	!	!	!LO:DY:rj
2c\	4a/	2f\	(4a/	i	czy	Oj-	po-	p
.	4g/	.	4g/)	.	.	.	.	.
4C/	4cc/	4e\	4cc\	z po-	-w nie	-ca	-kój	.
!!LO:PB:g=original
=20	=20	=20	=20	=20	=20	=20	=20	=20
!	!	!	!LO:TX:b:t=P:problem=druga zwrotka powinno być  "nieszczęściu"	!	!	!	!	!
4E\	4b- 4g/	2.c\	4b-/	-ko-	ie-	wo-	wiecz-	.
4F\	4a 4f/	.	4a/	-rą	-my	-li	-ny	.
4E-X\	4a 4f/	.	4r	.	.	.	.	.
*	*v	*v	*	*	*	*	*	*
=21	=21	=21	=21	=21	=21	=21	=21
2D\	2b- 2f/	2b-\	I	Gdy	Jak	Daj	<
4AA/	4cc 4f/	4cc\	z u-	Cię	żyć	nam	[[
=22	=22	=22	=22	=22	=22	=22	=22
*	*^	*	*	*	*	*	*
!	!	!	!	!	!	!	!	!LO:DY:rj
4BB-/	4dd 4b- 4f/	2ryy	(8.dd\L	-fno-	po-	we-	po-	f
.	.	.	16ff\Jk)	.	.	.	.	.
8BBn/	8ff 8a-X 8f/	.	8ff\	-ścią	-srud	-dług	-kój	.
8r;	8r;	.	8r;	.	.	.	.	.
4D-X\	8f/L	4Bn\	8f/	i	nas	Oj-	po-	p
.	8gJ 8f/	.	8g/	z po-	czu-	-ca	-kój	.
=23	=23	=23	=23	=23	=23	=23	=23	=23
2C\	4a/	2f 2c\	(4a/	-ko-	-ie-	wo-	wie-	.
.	4g/	.	4g/	.	.	.	.	.
4C 4CC/	4cc/	4e 4c\	4cc\)	.	.	.	.	.
!!LO:LB:g=original
=24	=24	=24	=24	=24	=24	=24	=24	=24
4F 4FF/	4f/	2ryy	4f/	-rą	-my	-li	-czny.	.
4r	4r	.	4r	.	.	.	.	.
4d-X\	8ff/L	4bn\	4r	.	.	.	.	.
.	8ggJ 8ff/	.	.	.	.	.	.	.
=25	=25	=25	=25	=25	=25	=25	=25	=25
2c\	4aa/	(2ff 2cc\	2.r	.	.	.	.	.
.	4gg/	.	.	.	.	.	.	.
4C/	4ccc/	4ee 4cc\)	.	.	.	.	.	.
*	*v	*v	*	*	*	*	*	*
=26	=26	=26	=26	=26	=26	=26	=26
4F\	4ff\	2.r	.	.	.	.	.
4r	4r	.	.	.	.	.	.
!	!LO:TX:a:t=[segno]:problem=znak segno na kresce taktowej	!LO:TX:a:t=[segno]:problem=znak segno na kresce taktowej	!	!	!	!	!
4D\	4bn 4f/	.	.	.	.	.	.
=27||	=27||	=27||	=27||	=27||	=27||	=27||	=27||
*>C	*>C	*>C	*>C	*>C	*>C	*>C	*>C
4F\	4ff\	2.r	.	.	.	.	.
8r	8r	.	.	.	.	.	.
.	(16qqdd/LL	.	.	.	.	.	.
.	16qqcc/	.	.	.	.	.	.
.	16qqbn/JJ	.	.	.	.	.	.
8c\L	8cc\L)	.	.	.	.	.	.
8f\	8ff\	.	.	.	.	.	.
8A\J	8a\J	.	.	.	.	.	.
!!LO:LB:g=original
=28	=28	=28	=28	=28	=28	=28	=28
4.d\	4.dd\	2.r	.	.	.	.	.
8c\L	8cc/L	.	.	.	.	.	.
8A\	8a/	.	.	.	.	.	.
8F\J	8f/J	.	.	.	.	.	.
=29	=29	=29	=29	=29	=29	=29	=29
4D\	4d/	2.r	.	.	.	.	.
4C\	4c/	.	.	.	.	.	.
4C#X 4CC#X\	4e 4B-/	.	.	.	.	.	.
=30	=30	=30	=30	=30	=30	=30	=30
2D 2DD\	2f 2A< 2F</	2.r	.	.	.	.	.
4BB- 4BBB-/	4d 4B-/	.	.	.	.	.	.
=31	=31	=31	=31	=31	=31	=31	=31
*	*^	*	*	*	*	*	*
2.C 2.CC/	4c/	2A</	2.r	.	.	.	.	.
.	4f/	.	.	.	.	.	.	.
!	!LO:TX:b:t=V&colon; S&colon;	!	!	!	!	!	!	!
.	4e/	4B-< 4G</	.	.	.	.	.	.
*	*v	*v	*	*	*	*	*	*
==	==	==	==	==	==	==	==
*-	*-	*-	*-	*-	*-	*-	*-
!!!system-decoration: s1{(s2,s3)}
!!!RDF**kern: > = above
!!!RDF**kern: < = below
!!!ENC: Marta Lawrence
!!!END: 2021-06-27
!!!ENC: Tomasz Grochalski
!!!END: 2021-06-20
